symbols/web/event_available/materialsymbolssharp/event_available_wght300gradN25_24px.svg

<svg xmlns="http://www.w3.org/2000/svg" height="24" width="24"><path d="M10.975 17.825 7.85 14.7l1-1 2.125 2.125 4.175-4.175 1 1Zm-7.3 3.475V4.65h3.2v-2.1H8.3v2.1h7.425v-2.1h1.4v2.1h3.2V21.3Zm1.4-1.4h13.85v-9.55H5.075Zm0-10.95h13.85v-2.9H5.075Zm0 0v-2.9 2.9Z"/></svg>

<svg xmlns="http://www.w3.org/2000/svg" height="24" width="24"><path d="M10.975 17.825 7.85 14.7 8.85 13.7 10.975 15.825 15.15 11.65 16.15 12.65ZM3.675 21.3V4.65H6.875V2.55H8.3V4.65H15.725V2.55H17.125V4.65H20.325V21.3ZM5.075 19.9H18.925V10.35H5.075ZM5.075 8.95H18.925V6.05H5.075ZM5.075 8.95V6.05V8.95Z"/></svg>
